packages/icons/src/assets/dinosaur.svg

<svg xmlns="http://www.w3.org/2000/svg" width="25" height="24"><g clip-path="url(#a)"><path fill-rule="evenodd" d="M16.58 1.5h2.25a3.754 3.754 0 0 1 3.75 3.75v9c0 2.586-1.462 4.889-3.75 6.028V22.5h-2.25c-.976 0-1.801-.63-2.112-1.5H12.08v1.5H9.83c-.976 0-1.801-.63-2.112-1.5H5.33a3.754 3.754 0 0 1-3.75-3.75v-.75h2.58a.745.745 0 0 0 .727-.562l.367-1.492a5.254 5.254 0 0 1 5.05-3.976l1.732-.015a6.68 6.68 0 0 1 4.388 1.562l.413.345a.76.76 0 0 0 .827.11.74.74 0 0 0 .431-.685l-.015-2.036A.75.75 0 0 0 17.33 9h-2.25c-1.24 0-2.25-1.01-2.25-2.25v-1.5a3.754 3.754 0 0 1 3.75-3.75m2.25 17.045a5.22 5.22 0 0 0 2.25-4.295v-9c0-1.24-1.01-2.25-2.25-2.25h-2.25c-1.24 0-2.25 1.01-2.25 2.25v1.5c0 .413.336.75.75.75h2.25a2.25 2.25 0 0 1 2.25 2.242l.015 2.033c.005.89-.49 1.675-1.291 2.054-.81.38-1.74.26-2.429-.316l-.413-.345a5.24 5.24 0 0 0-3.356-1.213h-.055l-1.734.015a3.75 3.75 0 0 0-3.607 2.839l-.367 1.488A2.24 2.24 0 0 1 4.161 18h-.953c.31.873 1.144 1.5 2.122 1.5h2.25V18h1.5v2.25c0 .414.336.75.75.75h.75v-4.5h1.5v3h2.25V18h1.5v2.25c0 .414.336.75.75.75h.75v-4.5h1.5zM16.58 4.5h1.5V6h-1.5z" clip-rule="evenodd"/></g><defs><clipPath id="a"><path d="M.08 0h24v24h-24z"/></clipPath></defs></svg>

<svg width="100%" height="100%" viewBox="0 0 24 24" version="1.1" xmlns="http://www.w3.org/2000/svg" xmlns:xlink="http://www.w3.org/1999/xlink" xml:space="preserve" style="fill-rule:evenodd;clip-rule:evenodd;stroke-linejoin:round;stroke-miterlimit:2;"><g transform="matrix(1,0,0,1,-0.08,0)"><path d="M16.58,1.5L18.83,1.5C20.886,1.502 22.578,3.194 22.58,5.25L22.58,14.25C22.58,16.836 21.118,19.139 18.83,20.278L18.83,22.5L16.58,22.5C15.604,22.5 14.779,21.87 14.468,21L12.08,21L12.08,22.5L9.83,22.5C8.854,22.5 8.029,21.87 7.718,21L5.33,21C3.274,20.998 1.582,19.306 1.58,17.25L1.58,16.5L4.16,16.5C4.502,16.502 4.803,16.269 4.887,15.938L5.254,14.446C5.834,12.133 7.919,10.491 10.304,10.47L12.036,10.455C13.638,10.432 15.196,10.987 16.424,12.017L16.837,12.362C17.066,12.56 17.392,12.603 17.664,12.472C17.93,12.35 18.1,12.08 18.095,11.787L18.08,9.751L18.08,9.75C18.08,9.339 17.741,9 17.33,9L15.08,9C13.84,9 12.83,7.99 12.83,6.75L12.83,5.25C12.832,3.194 14.524,1.502 16.58,1.5M18.83,18.545C20.238,17.571 21.081,15.963 21.08,14.25L21.08,5.25C21.08,4.01 20.07,3 18.83,3L16.58,3C15.34,3 14.33,4.01 14.33,5.25L14.33,6.75C14.33,7.163 14.666,7.5 15.08,7.5L17.33,7.5C18.561,7.5 19.576,8.511 19.58,9.742L19.595,11.775C19.6,12.665 19.105,13.45 18.304,13.829C17.494,14.209 16.564,14.089 15.875,13.513L15.462,13.168C14.52,12.384 13.332,11.954 12.106,11.955L12.051,11.955L10.317,11.97C8.614,11.984 7.124,13.157 6.71,14.809L6.343,16.297C6.096,17.297 5.191,18.003 4.161,18L3.208,18C3.518,18.873 4.352,19.5 5.33,19.5L7.58,19.5L7.58,18L9.08,18L9.08,20.25C9.08,20.664 9.416,21 9.83,21L10.58,21L10.58,16.5L12.08,16.5L12.08,19.5L14.33,19.5L14.33,18L15.83,18L15.83,20.25C15.83,20.664 16.166,21 16.58,21L17.33,21L17.33,16.5L18.83,16.5L18.83,18.545ZM16.58,4.5L18.08,4.5L18.08,6L16.58,6L16.58,4.5Z"/></g></svg>
